**kern	**kern
*staff2	*staff1
*clefF4	*clefG2
*k[]	*k[]
*M4/4	*M4/4
*C:	*C:
=	=
16eLL	8gg
16g	.
16f	4gg
16gJJ	.
16eLL	.
16g	.
16d#	8ff#
16gJJ	.
16eLL	(8ggL
16g	.
16d#	8ff#
16gJJ	.
16eLL	8gg
16g	.
16d#	8ff#J)
16gJJ	.
=115	=115
16eLL	(8ggL
16g	.
16c#	16eeeJk)
16gJJ	16r
16dLL	(8ffL
16g	.
16B	16dddJk)
16gJJ	16r
16cLL	(8eeL
16g	.
16B	16cccJk)
16gJJ	16r
16cLL	8r
16g	.
16c#	8ee
16gJJ	.
=116	=116
16dLL	8ff
16g	.
16B	4ff
16gJJ	.
16dLL	.
16g	.
16c#	8ee
16gJJ	.
16dLL	(8ffL
16g	.
16c#	8ee
16gJJ	.
16dLL	8ff
16g	.
16c#	8eeJ)
16gJJ	.
=117	=117
16dLL	(8ffL
16g	.
16B	16dddJk)
16gJJ	16r
16cLL	(8eeL
16g	.
16e	16cccJk)
16gJJ	16r
16GLL	(8ddL
16g	.
16f#	16bbJk)
16gJJ	16r
16fLL	16r
16g	16bLL
16d	16cc
16gJJ	16ddJJ
*clefF4	*
=118	=118
8cL	16eeLL
.	16cc
8C	16g
.	16ccJJ
8c	16eeLL
.	16cc
8BJ	16ee
.	16ccJJ
8AL	16ffLL
.	16cc
8G	16ee
.	16ccJJ
8F	16ddLL
.	16a
8EJ	16cc
.	16gJJ
=119	=119
8cL	16eeLL
.	16cc
8C	16g
.	16ccJJ
8c	16eeLL
.	16cc
8dJ	16ff
.	16ccJJ
*clefG2	*
8eL	16ggLL
.	16cc
8d#	16ff#
.	16ccJJ
8e	16ggLL
.	16cc
8eJ	16gg#
.	16ccJJ
=120	=120
8fL	16aaLL
.	16cc
8f	16dd
.	16ccJJ
8a	16ffLL
.	16cc
8aJ	16dd
.	16ccJJ
8gL	16eeLL
.	16cc
8g	16dd
.	16ccJJ
*clefF4	*
8G	16ddLL
.	16b
8GJ	16cc
.	16bJJ
=121	=121
*-	*-
